!!!COM: Bach, Johann Sebastian
!!!CDT: 1685/3//-1750/7/28/
!!!OTL@@DE: Wer nur den lieben Gott laesst walten
!!!AGN: 4-Part Chorale
!!!SCT: BH 146
!!!SCT: BWV 434
**harm	**root	**kern	**kern	**kern	**kern
!	!	!bass	!tenor	!alto	!soprno
*	*Iorgan	*Iorgan	*Iorgan	*Iorgan	*Iorgan
*	*	*clefF2	*clefF2	*clefG2	*clefG2
*k[b-e-a-d-]	*k[b-e-a-d-]	*k[b-e-a-d-]	*k[b-e-a-d-]	*k[b-e-a-d-]	*k[b-e-a-d-]
*f:	*f:	*f:	*f:	*f:	*f:
*M4/4	*M4/4	*M4/4	*M4/4	*M4/4	*M4/4
*met(c)	*met(c)	*met(c)	*met(c)	*met(c)	*met(c)
*MM60	*MM60	*MM60	*MM60	*MM60	*MM60
*>[A,A,B]	*>[A,A,B]	*>[A,A,B]	*>[A,A,B]	*>[A,A,B]	*>[A,A,B]
*>A	*>A	*>A	*>A	*>A	*>A
i	4AA	4F	8F	8A-	4c
.	.	.	8G	8B-	.
=1	=1	=1	=1	=1	=1
ib	4AA	4AA-	8A-	4c	4f
.	.	.	8G	.	.
V	4EE	4C	8F	4c	4g
.	.	.	8E	.	.
i	4AA	4FF	4F	8c	4a-
.	.	.	.	8d	.
viiob	4GG#	4GG	4BB-	4e	4g
=2	=2	=2	=2	=2	=2
ib	4AA	4AA-	8C	8f	4f
.	.	.	8c	8e-	.
iiob	4BB	4BB-	8B-	4d-	4g
.	.	.	8A-	.	.
V	2EE	2C	4.G	2c	4.e
.	.	.	8F	.	8d
=3	=3	=3	=3	=3	=3
V;	4EE;	4C;	4E;	4G;	4c;
v	4EE	4C	4G	4c	4e-
i7	4AA	4F	4A-	4c	4e-
iio	4BB	8G	8B-	4B-	4d-
.	.	8F	8A-	.	.
=4	=4	=4	=4	=4	=4
V7b	8EE	8E	8G	8B-	4c
V7c/IV	8AA	8E-	8F	8A	.
IVb	8DD	8D	8F	8B-	4f
Fr	8DD#	8D-	8G	8B	.
ic	8AA	8C	8A-	8c	8f
Vb/V	8BB	8BB	[8G	8d	8g
V7	4EE	4C	8G]	4c	4e
.	.	.	16A-	.	.
.	.	.	16B-	.	.
!!linebreak: 2
=5	=5	=5	=5	=5	=5
i;	2.AA;	2.FF;	2.A-;	2.c;	2.f;
=:|!	=:|!	=:|!	=:|!	=:|!	=:|!
*>B	*>B	*>B	*>B	*>B	*>B
V	4EE	4C	4c	4e	4g
=6	=6	=6	=6	=6	=6
i	4AA	4F	4c	4f	4a-
-VII	4GG	4G	4B-	4e-	4b-
III	4CC	8A-	4A-	4e-	4cc
.	.	8G	.	.	.
i	4AA	8F	4A-	4f	4cc
.	.	8E-	.	.	.
=7	=7	=7	=7	=7	=7
iv7	4DD	8D-	4A-	4f	8b-
.	.	8BB-	.	.	16cc
.	.	.	.	.	16dd-
V7/III	4GG	4E-	4G	8e-	4b-
.	.	.	.	8d-	.
III;	4CC;	4AA-;	4E-;	4c;	4a-;
I	4AA	4AA	4F	4c	4cc
=8	=8	=8	=8	=8	=8
IV	8DD	8BB-	8F	8d	4b-
V7	8EE	8C	8c	8e	.
vi7	8FF	8D-	8c	4f	4a-
viio/-VII	8FF#	8D	8c-	.	.
-VII	8GG	8E-	4B-	8e-	4g
viio7	8GG#	8E	.	8d-	.
i	4AA	4F	8A-	4c	8f
.	.	.	8G	.	8g
=9	=9	=9	=9	=9	=9
viio7/V	4DD#	4BB	4F	4d	8a-
.	.	.	.	.	8g
V7	4EE	4C	4E	8c	4g
.	.	.	.	8B-	.
I;	4AA;	4FF;	4C;	4A;	4f;
==	==	==	==	==	==
*-	*-	*-	*-	*-	*-
!!chor2scor: -l 2 -s 0.6 -o %b.pmx
!!!YEC: Copyright 2003 by Craig Stuart Sapp
!!!license: GNU General Public License (http://www.gnu.org/copyleft/gpl.html)
!!!SMA: 371 Bach Chorales, edited by Ludwig Erk, C.F. Peters
!!!PDT: 1850, 1865
!!!ONB: Harmony and Root analysis done manually by Craig Sapp
